X:294
T:Reel 294
M:4/4
K:Dmix
L:1/8
AG|F>D (3DDD A>D (3DCD |F>D (3DCD ABAG|F>D (3DCD A,>D (3DCD |EECE G2:|G2|F>D (3DCD A,D (3DCD |F>D (3DCD AG (3GFG |A>D (3DDD A,D (3DDD |ECCE GBAG|F>D (3DCD A,D (3DCD |ADDF G2FG|Adcd  (3GAG |GECE G2|AG|FEFG A2GE|DEFG AGAG|FEFG A2A2|EDCD EFGE|AD (3FED ADFD|FEFG A2AB|cdBA GFE|DCA,B, C2|
